X: 5
T: 72nd Highlanders' Farewell To Aberdeen, The
Z: ceolachan
S: https://thesession.org/tunes/6970#setting28289
R: barndance
M: 4/4
L: 1/8
K: Dmaj
|: c>B |A2 d2 d2 e>f | g>fe<d f2- f>f | g2 B2 B2 c>d | e>fe>d d>cB>A |
A2 d2- d2 e>f | g>fe<d f4 | g2 B2 f>ed<c | d4 d2 :|
|: f>g |a2 A2 A2 =c2 | B2 G2 A2- A>^G | A2 d2 A>Bc<d | f2 e2 e2 (3efg |
a2 A2 A2- A>=c | B2 G2 A4 | A2 d2 f>ed<c | d4 d2 :|
